X:351
T: Schnstes Rschen (83), S. 225
N: T0240
O: Luxemburg
S: Singendes Volk, Esch-Alzette 1937 posth.]
N: Stegen, hhh N. Pletschette (Lehrer; Rmelingen), 1915;
N: Reuland, Gabriel Petry, 1906, Textvarianten
R: Liebeslieder]
M: 3/4
L: 1/16
K: G
G2G2 | G4D2z2B2B2 | B4G2z2
G2B2 | d6B2c2B2 | A4z4
d2c2 | B3BB6B2 | e6d2d2c2 | A4z4
B2c2 | d4G2A2B4A4 | G4z4

